source/img/three-of-five-stars.svg

<svg width="79" height="14" viewBox="0 0 79 14" fill="none" xmlns="http://www.w3.org/2000/svg">
<path d="M7.5 11.0412L12.135 13.65L10.9087 8.72975L15 5.42084L9.60676 4.98892L7.5 0.350037L5.39326 4.98892L0 5.42084L4.09126 8.72975L2.865 13.65L7.5 11.0412Z" fill="white"/>
<path d="M23.5 11.0412L28.135 13.65L26.9087 8.72975L31 5.42084L25.6068 4.98892L23.5 0.350037L21.3933 4.98892L16 5.42084L20.0913 8.72975L18.865 13.65L23.5 11.0412Z" fill="white"/>
<path d="M39.5 11.0412L44.135 13.65L42.9087 8.72975L47 5.42084L41.6068 4.98892L39.5 0.350037L37.3933 4.98892L32 5.42084L36.0913 8.72975L34.865 13.65L39.5 11.0412Z" fill="white"/>
<path d="M55.7453 10.6054L55.5 10.4674L55.2547 10.6054L51.6307 12.6453L52.5764 8.85066L52.6535 8.54141L52.4057 8.34098L49.2878 5.81931L53.4332 5.48733L53.7267 5.46382L53.8485 5.19567L55.5 1.55921L57.1515 5.19568L57.2733 5.46382L57.5669 5.48733L61.7122 5.81931L58.5943 8.34098L58.3465 8.54141L58.4236 8.85066L59.3693 12.6453L55.7453 10.6054Z" stroke="#F3F3F3"/>
<path d="M71.7453 10.6054L71.5 10.4674L71.2547 10.6054L67.6307 12.6453L68.5764 8.85066L68.6535 8.54141L68.4057 8.34098L65.2878 5.81931L69.4332 5.48733L69.7267 5.46382L69.8485 5.19567L71.5 1.55921L73.1515 5.19568L73.2733 5.46382L73.5669 5.48733L77.7122 5.81931L74.5943 8.34098L74.3465 8.54141L74.4236 8.85066L75.3693 12.6453L71.7453 10.6054Z" stroke="white"/>
</svg>

<svg fill="none" height="14" width="79" xmlns="http://www.w3.org/2000/svg"><path d="m7.5 11.041 4.635 2.609-1.226-4.92 4.091-3.31-5.393-.43-2.107-4.64-2.107 4.639-5.393.431 4.091 3.31-1.226 4.92zm16 0 4.635 2.609-1.226-4.92 4.091-3.31-5.393-.431-2.107-4.639-2.107 4.639-5.393.431 4.091 3.309-1.226 4.92 4.635-2.609zm16 0 4.635 2.609-1.226-4.92 4.091-3.31-5.393-.431-2.107-4.639-2.107 4.639-5.393.431 4.091 3.309-1.226 4.92 4.635-2.609z" fill="#fff"/><path d="m55.745 10.605-.245-.138-.245.138-3.624 2.04.945-3.794.078-.31-.248-.2-3.118-2.522 4.145-.332.294-.023.122-.268 1.651-3.637 1.651 3.637.122.268.294.023 4.145.332-3.118 2.522-.248.2.078.31.945 3.794z" stroke="#f3f3f3"/><path d="m71.745 10.605-.245-.138-.245.138-3.624 2.04.945-3.794.078-.31-.248-.2-3.118-2.522 4.145-.332.294-.023.121-.268 1.652-3.637 1.651 3.637.122.268.294.023 4.145.332-3.118 2.522-.247.2.077.31.945 3.794z" stroke="#fff"/></svg>
